X:480
%%etbk:tnset id:199,pos:1,rep:2x,ant:Intro (Guit) - 2x - Riff - 2x - Riff - Schluss
%%etbk:pldat 2016-02-27T14:21,2015-02-22T13:01,2015-01-07T15:37,2015-01-05T18:28,2014-10-16T18:02,2014-09-04T18:38,2014-09-03T18:50,2014-09-02T18:41,2014-09-01T18:44,2014-08-31T14:04,2014-08-28T18:40,2014-08-26T16:54,2014-08-14T19:32,2014-08-10T11:58,2014-07-30T18:24,2014-07-05T13:34,2014-06-20T16:20,2014-06-19T19:19,2014-06-17T19:03,2014-06-11T15:29,2014-04-24T17:36,2014-04-23T16:44,2014-04-22T19:30,2014-04-21T15:20,2014-04-18T15:18,2014-04-12T11:24,2014-04-06T11:06,2014-03-03T18:54,2014-01-30T18:04,2014-01-29T16:10,2014-01-28T16:33,2014-01-12T14:17,2014-01-02T11:12
T: Star of the County Down
M:4/4
R:song
L:1/8
%%score (M1) (M2) (M3)
V:M1  clef=treble  name="Song"   snm="Song"
V:M2  clef=treble  name="Box"    snm="Box"  
K:Emin
P:A
[V:M1]B,D |"em"E2E2 E2DE|"G"G2G2 "D"A2GA|"em"B2AG E2E2|"bm"D8-|D8-|-D8-|D6B,D|
[V:M2] z2 |"em"[E8B,8]|"G"[G4D4] "D"[A4D4]|"em"z2[E2B,2]z2[E2B,2]|"bm7"[D8A,8]-|[D8A,8]| F2AE- EEDB, |A,B,-B,D -D2F2|
[V:M1]"em"E2E2 E2DE|"G"G2G2 "D"A2GA|"em"B2AG E2D2 | E8- | E8- |E8- | E6Bc|
[V:M2]"em"[E8B,8]|"G"[G4D4] "D"[A4D4]|"em"z2[E2B,2]"bm7"z2[D2A,2]|"em"[E8B,8]-| [E8B,8]- |[E8B,8]- | [E8B,8]|
P:B
[V:M1]|:"G"d2B2 B2AG|"D"A2A2 A2GA|"em"B2AG E2E2|"bm"D8-| D8-|-D8-|D6B,D|
[V:M2]|:"G"[G8D8]|"D"[F8D8]|"em"z2[E2B,2]z2[E2B,2]|"bm7"[D8A,8]-|[D8A,8]| A,2B,D- DzA,B, |D2z2DE-E2-|
[V:M1]"em"E2E2 E2DE|"G"G2G2 "D"A2GA |"em"B2AG E2D2!coda!| E8-|E8- |E8-|1E6B2:|2E8||
[V:M2]"em"[E8B,8]|"G"[G4D4] "D"[A4D4]|"em"z2[E2B,2]"bm"z2[D2A,2]!coda!|"em"[E8B,8]-| [E8B,8]- |[E8B,8]- |1[E8B,8]:|2[E8B,8]||
P:Coda
[V:M1] |:"am"[EC]z2"bm"[FD]z2"Cmaj7"[G2E2]-|[G4E4] "Dsus4"[A2G2D2] [A2G2D2] | "em"[E8B,8]- |[E8B,8]| "am"[EC]z2"bm"[FD]z2"Cmaj7"[G2E2]-|[G4E4] "Dsus4"[A2G2D2] [A2G2D2] |1 "em"[E8B,8]- |[E8B,8]:|2 "em"[E2B,2]z2z4|z8|3 "Schluss""em"[EB,][EB,][EB,][EB,]z4| 
[V:M2] |:"am"[EC]z2"bm"[FD]z2"Cmaj7"[G2E2]-|[G8E8] | "bm7"[F8B,8]- |[F8B,8] | "am"[EC]z2"bm"[FD]z2"Cmaj7"[G2E2]-|[G8E8] |1 "bm7"[F8B,8]- |[F8B,8]:|2 "em"[E2B,2]z2z4|z8|3 "Schluss""em"[EB,][EB,][EB,][EB,]z4|


